X: 10191
T: RUSSIAN MARCH
C:
%R: march
B: Elias Howe "The Musician's Companion" Part 1 1842 p.19 #1
S: http://imslp.org/wiki/The_Musician's_Companion_(Howe,_Elias)
Z: 2015 John Chambers <jc:trillian.mit.edu>
N: The last note in 10, bass, is lacking the sharp in the other voices; fixed.
M: C
L: 1/8
K: D
% - - - - - - - - - - - - - - - - - - - - - - - - -
V: 1 staves=3
|:\
d2d>d f2d>f | a2a>a a2z2 | a2f>a bagf | e2a>a agfe |\
d2d>d f2d>f | a2a>a a2z2 | fage d2c2 | d2d>d d2 :|
|:\
f2f>f fedc | B2B>B Bcd^d | e2e>e edcB | A2A>A A2z2 |\
d2d>d f2d>f | a2a>a a2z2 | fage d2c2 | d2d>d d2 :|
% - - - - - - - - - - - - - - - - - - - - - - - - -
V: 2
|:\
D2D>D F2D>F | A2A>A A2z2 | f2d>f gfed | c2A>A AGFE |\
D2D>D F2D>F | A2A>A A2z2 | A2BG F2E2 | F2F>F F2 :|
|: "^Unison."\
f2f>f fedc | B2B>B Bcd^d | e2e>e edcB A2A>A A2z2 |\
D2D>D F2D>F | A2A>A A2z2 | A2BG F2E2 | F2F>F F2 :|
% - - - - - - - - - - - - - - - - - - - - - - - - -
V: 3 clef=bass middle=d
|:\
d2d>d f2d>f | a2a>a a2z2 | d2z2 d2d2 | A2A>A A2z2 |\
d2d>d f2d>f | a2A>A A2z2 | d2g2 a2A2 | d2d>d d2 :|
|:\
f2f>f fedc | B2B>B Bcd^d | e2e>e edcB | A2A>A A2z2 |\
d2d>d f2d>f | a2A>A A2z2 | d2g2 a2A2 | d2d>d d2 :|
% - - - - - - - - - - - - - - - - - - - - - - - - -


